curriculum/images/exercise-icons/formal-dinner.svg

<svg width="82" height="83" viewBox="0 0 82 83" fill="none" xmlns="http://www.w3.org/2000/svg">
<path d="M41 81.216C63.0914 81.216 81 63.3074 81 41.216C81 19.1246 63.0914 1.216 41 1.216C18.9086 1.216 1 19.1246 1 41.216C1 63.3074 18.9086 81.216 41 81.216Z" fill="#DAEDF7" stroke="#DAEDF7" stroke-miterlimit="10"/>
<path opacity="0.15" d="M24.479 82.784C32.1988 82.784 38.457 81.8451 38.457 80.687C38.457 79.5289 32.1988 78.59 24.479 78.59C16.7591 78.59 10.501 79.5289 10.501 80.687C10.501 81.8451 16.7591 82.784 24.479 82.784Z" fill="#45413C"/>
<path d="M15.2411 53.29V78.451H21.9511L22.7171 60.836C22.7386 60.3863 22.9324 59.9622 23.2582 59.6516C23.584 59.341 24.0169 59.1677 24.4671 59.1677C24.9173 59.1677 25.3502 59.341 25.676 59.6516C26.0018 59.9622 26.1956 60.3863 26.2171 60.836L26.9831 78.451H33.6931V53.29H15.2411Z" fill="#87898C"/>
<path d="M21.0881 59.511L24.4681 57.483L27.8941 59.539C28.1328 59.6821 28.401 59.7688 28.6783 59.7924C28.9556 59.816 29.2347 59.7758 29.4941 59.675L33.6941 58.043V53.29H15.2411V57.762L19.4071 59.614C19.675 59.7328 19.9676 59.7855 20.2602 59.7676C20.5527 59.7497 20.8367 59.6617 21.0881 59.511Z" fill="#45413C"/>
<path d="M15.2411 53.29V78.451H21.9511L22.7171 60.836C22.7386 60.3863 22.9324 59.9622 23.2582 59.6516C23.584 59.341 24.0169 59.1677 24.4671 59.1677C24.9173 59.1677 25.3502 59.341 25.676 59.6516C26.0018 59.9622 26.1956 60.3863 26.2171 60.836L26.9831 78.451H33.6931V53.29H15.2411Z" stroke="#45413C" stroke-linecap="round" stroke-linejoin="round"/>
<path d="M14.192 77.123C14.0541 77.3339 13.9757 77.5782 13.9651 77.8299C13.9545 78.0817 14.012 78.3317 14.1316 78.5535C14.2512 78.7753 14.4285 78.9607 14.6447 79.0902C14.8609 79.2196 15.108 79.2883 15.36 79.289H21.084C21.324 79.2884 21.5597 79.2261 21.7687 79.1082C21.9776 78.9902 22.1527 78.8205 22.2772 78.6154C22.4017 78.4103 22.4714 78.1766 22.4796 77.9368C22.4878 77.697 22.4342 77.4591 22.324 77.246C20.8 74.319 15.934 74.481 14.192 77.123Z" fill="#45413C" stroke="#45413C" stroke-linecap="round" stroke-linejoin="round"/>
<path d="M34.742 77.123C34.8799 77.3339 34.9583 77.5782 34.9689 77.8299C34.9795 78.0817 34.922 78.3317 34.8024 78.5535C34.6828 78.7753 34.5056 78.9607 34.2893 79.0902C34.0731 79.2196 33.826 79.2883 33.574 79.289H27.85C27.6101 79.2884 27.3743 79.2261 27.1654 79.1082C26.9564 78.9902 26.7813 78.8205 26.6568 78.6154C26.5323 78.4103 26.4626 78.1766 26.4544 77.9368C26.4462 77.697 26.4998 77.4591 26.61 77.246C28.137 74.319 33 74.481 34.742 77.123Z" fill="#45413C" stroke="#45413C" stroke-linecap="round" stroke-linejoin="round"/>
<path d="M9.372 43.645C9.3799 44.3232 9.4593 44.9986 9.609 45.66C10.2103 42.213 11.991 39.0822 14.6464 36.8036C17.3018 34.525 20.6667 33.2403 24.165 33.1694C27.6633 33.0985 31.0774 34.2458 33.823 36.415C36.5685 38.5841 38.4746 41.6402 39.215 45.06C39.4422 44.1887 39.5598 43.2924 39.565 42.392C39.6083 40.3822 39.2498 38.3839 38.5106 36.5144C37.7714 34.6449 36.6663 32.9419 35.2602 31.5052C33.854 30.0684 32.1752 28.9269 30.3221 28.1476C28.4689 27.3683 26.4788 26.9669 24.4685 26.9669C22.4582 26.9669 20.4681 27.3683 18.615 28.1476C16.7619 28.9269 15.083 30.0684 13.6769 31.5052C12.2708 32.9419 11.1657 34.6449 10.4265 36.5144C9.6872 38.3839 9.3287 40.3822 9.372 42.392V43.645Z" fill="#87898C"/>
<path d="M39.565 42.387C39.6083 40.3772 39.2498 38.3789 38.5106 36.5094C37.7714 34.6399 36.6663 32.9369 35.2602 31.5002C33.854 30.0634 32.1752 28.9219 30.3221 28.1426C28.4689 27.3633 26.4788 26.9619 24.4685 26.9619C22.4582 26.9619 20.4681 27.3633 18.615 28.1426C16.7619 28.9219 15.083 30.0634 13.6769 31.5002C12.2708 32.9369 11.1657 34.6399 10.4265 36.5094C9.6872 38.3789 9.3287 40.3772 9.372 42.387V43.645C9.3739 45.5363 9.9311 47.3855 10.9744 48.963C12.0178 50.5405 13.5013 51.777 15.241 52.519V53.29H33.694V52.053C35.4632 51.133 36.946 49.7453 37.9812 48.041C39.0164 46.3367 39.5642 44.3811 39.565 42.387Z" fill="#87898C"/>
<path d="M39.565 42.387C39.6083 40.3772 39.2498 38.3789 38.5106 36.5094C37.7714 34.6399 36.6663 32.9369 35.2602 31.5002C33.854 30.0634 32.1752 28.9219 30.3221 28.1426C28.4689 27.3633 26.4788 26.9619 24.4685 26.9619C22.4582 26.9619 20.4681 27.3633 18.615 28.1426C16.7619 28.9219 15.083 30.0634 13.6769 31.5002C12.2708 32.9369 11.1657 34.6399 10.4265 36.5094C9.6872 38.3789 9.3287 40.3772 9.372 42.387V43.645C9.3739 45.5363 9.9311 47.3855 10.9744 48.963C12.0178 50.5405 13.5013 51.777 15.241 52.519V53.29H33.694V52.053C35.4632 51.133 36.946 49.7453 37.9812 48.041C39.0164 46.3367 39.5642 44.3811 39.565 42.387Z" stroke="#45413C" stroke-linecap="round" stroke-linejoin="round"/>
<path d="M33.6941 54.967L27.8231 56.645L24.4681 54.967L21.1131 56.645L15.2421 54.967V53.29H33.6941V54.967Z" fill="white" stroke="#45413C" stroke-linecap="round" stroke-linejoin="round"/>
<path d="M33.6941 52.053V40.709" stroke="#45413C" stroke-linecap="round" stroke-linejoin="round"/>
<path d="M24.467 49.1L30.42 28.513C28.5391 27.7061 26.5137 27.29 24.467 27.29C22.4203 27.29 20.395 27.7061 18.514 28.513L24.467 49.1Z" fill="white" stroke="#45413C" stroke-linecap="round" stroke-linejoin="round"/>
<path d="M27.5871 28.513C25.5777 29.261 23.3664 29.261 21.3571 28.513L21.3641 24.834H27.5941L27.5871 28.513Z" fill="#BF8256" stroke="#45413C" stroke-linecap="round" stroke-linejoin="round"/>
<path d="M24.468 28.8359V54.9669" stroke="#45413C" stroke-linecap="round" stroke-linejoin="round"/>
<path d="M24.467 49.0999L18.514 28.5129C16.7513 29.2705 15.1488 30.3565 13.792 31.7129L17.757 35.6779V39.8719L24.467 49.0999Z" stroke="#45413C" stroke-linecap="round" stroke-linejoin="round"/>
<path d="M24.467 49.0999L30.42 28.5129C32.1827 29.2705 33.7852 30.3565 35.142 31.7129L31.177 35.6779V39.8719L24.467 49.0999Z" stroke="#45413C" stroke-linecap="round" stroke-linejoin="round"/>
<path d="M24.4681 28.835L20.6321 26.862C20.5216 26.805 20.3983 26.7774 20.274 26.7818C20.1498 26.7863 20.0288 26.8227 19.9227 26.8875C19.8166 26.9523 19.7289 27.0434 19.6682 27.1519C19.6075 27.2604 19.5758 27.3827 19.5761 27.507V30.164C19.5761 30.2882 19.608 30.4103 19.6688 30.5187C19.7295 30.627 19.8171 30.7179 19.9231 30.7827C20.0292 30.8474 20.15 30.8838 20.2742 30.8885C20.3983 30.8931 20.5215 30.8657 20.6321 30.809L24.4681 28.835Z" fill="#45413C" stroke="#45413C" stroke-linecap="round" stroke-linejoin="round"/>
<path d="M24.468 28.835L28.305 26.862C28.4155 26.8053 28.5388 26.7779 28.6629 26.7825C28.787 26.7872 28.9079 26.8236 29.0139 26.8883C29.1199 26.9531 29.2075 27.044 29.2683 27.1523C29.3291 27.2607 29.361 27.3828 29.361 27.507V30.164C29.361 30.2882 29.3291 30.4104 29.2683 30.5187C29.2075 30.627 29.1199 30.7179 29.0139 30.7827C28.9079 30.8474 28.787 30.8839 28.6629 30.8885C28.5388 30.8931 28.4155 30.8657 28.305 30.809L24.468 28.835Z" fill="#45413C" stroke="#45413C" stroke-linecap="round" stroke-linejoin="round"/>
<path d="M27.823 52.4509C28.4903 52.4509 29.1302 52.1858 29.6021 51.714C30.0739 51.2421 30.339 50.6022 30.339 49.9349C30.339 49.2676 30.0739 48.6277 29.6021 48.1558C29.1302 47.684 28.4903 47.4189 27.823 47.4189H25.307V52.4509H27.823Z" fill="white" stroke="#45413C" stroke-linecap="round" stroke-linejoin="round"/>
<path d="M15.2421 52.519C16.4354 53.0285 17.7196 53.2907 19.0171 53.29H25.3071V47.419H19.0171C18.0165 47.4177 17.0572 47.0197 16.3496 46.3122C15.6419 45.6048 15.2437 44.6456 15.2421 43.645V40.709" stroke="#45413C" stroke-linecap="round" stroke-linejoin="round"/>
<path d="M26.823 46.58H20.436C19.8838 46.58 19.436 47.0277 19.436 47.58V58.999C19.436 59.5513 19.8838 59.999 20.436 59.999H26.823C27.3753 59.999 27.823 59.5513 27.823 58.999V47.58C27.823 47.0277 27.3753 46.58 26.823 46.58Z" fill="white" stroke="#45413C" stroke-linecap="round" stroke-linejoin="round"/>
<path d="M34.7881 17.545C34.7842 17.1308 34.637 16.7307 34.3716 16.4126C34.1062 16.0945 33.7389 15.8781 33.3321 15.8V14.633C33.3321 12.3161 32.4117 10.0941 30.7733 8.45567C29.135 6.81737 26.913 5.89697 24.5961 5.89697C22.2791 5.89697 20.0571 6.81737 18.4188 8.45567C16.7805 10.0941 15.8601 12.3161 15.8601 14.633V15.8C15.4353 15.8792 15.0537 16.1099 14.7863 16.4493C14.5189 16.7887 14.3838 17.2136 14.4062 17.6451C14.4286 18.0766 14.6069 18.4853 14.9079 18.7952C15.209 19.1052 15.6124 19.2952 16.0431 19.33C16.4533 21.2947 17.5276 23.0582 19.0851 24.3241C20.6426 25.59 22.5885 26.281 24.5956 26.281C26.6026 26.281 28.5485 25.59 30.106 24.3241C31.6636 23.0582 32.7378 21.2947 33.1481 19.33C33.5946 19.2902 34.0102 19.0851 34.3136 18.755C34.6169 18.4248 34.7861 17.9934 34.7881 17.545Z" fill="#BF8256" stroke="#45413C" stroke-linecap="round" stroke-linejoin="round"/>
<path d="M19.8641 19.729C20.4672 19.729 20.9561 19.2401 20.9561 18.637C20.9561 18.0339 20.4672 17.545 19.8641 17.545C19.261 17.545 18.7721 18.0339 18.7721 18.637C18.7721 19.2401 19.261 19.729 19.8641 19.729Z" fill="#BF8256"/>
<path d="M29.3281 19.729C29.9312 19.729 30.4201 19.2401 30.4201 18.637C30.4201 18.0339 29.9312 17.545 29.3281 17.545C28.725 17.545 28.2361 18.0339 28.2361 18.637C28.2361 19.2401 28.725 19.729 29.3281 19.729Z" fill="#BF8256"/>
<path d="M21.32 16.8171C21.9231 16.8171 22.412 16.3282 22.412 15.7251C22.412 15.122 21.9231 14.6331 21.32 14.6331C20.7169 14.6331 20.228 15.122 20.228 15.7251C20.228 16.3282 20.7169 16.8171 21.32 16.8171Z" fill="#45413C"/>
<path d="M27.872 16.8171C28.4751 16.8171 28.964 16.3282 28.964 15.7251C28.964 15.122 28.4751 14.6331 27.872 14.6331C27.2689 14.6331 26.78 15.122 26.78 15.7251C26.78 16.3282 27.2689 16.8171 27.872 16.8171Z" fill="#45413C"/>
<path d="M22.121 23.952C20.9295 24.1242 19.7585 24.4167 18.626 24.825C18.626 24.825 19.826 20.457 22.121 20.457C22.5851 20.457 23.0302 20.6414 23.3584 20.9696C23.6866 21.2978 23.871 21.7429 23.871 22.207C23.871 22.6712 23.6866 23.1163 23.3584 23.4445C23.0302 23.7727 22.5851 23.957 22.121 23.957V23.952Z" fill="#614B44" stroke="#45413C" stroke-linecap="round" stroke-linejoin="round"/>
<path d="M27.0709 23.952C28.2621 24.1243 29.4327 24.4168 30.5649 24.825C30.5649 24.825 29.3649 20.457 27.0709 20.457C26.6068 20.457 26.1617 20.6414 25.8335 20.9696C25.5053 21.2978 25.3209 21.7429 25.3209 22.207C25.3209 22.6712 25.5053 23.1163 25.8335 23.4445C26.1617 23.7727 26.6068 23.957 27.0709 23.957V23.952Z" fill="#614B44" stroke="#45413C" stroke-linecap="round" stroke-linejoin="round"/>
<path d="M24.6 5.90002C22.2831 5.90002 20.061 6.82043 18.4227 8.45872C16.7844 10.0971 15.864 12.3191 15.864 14.636V15.436C16.5015 15.4274 17.1101 15.1689 17.5589 14.7161C18.0077 14.2634 18.2609 13.6525 18.264 13.015C18.3003 12.7867 18.382 12.5681 18.5042 12.3719C18.6265 12.1758 18.7869 12.0061 18.9759 11.8731C19.1649 11.74 19.3787 11.6462 19.6046 11.5973C19.8305 11.5483 20.0639 11.5452 20.291 11.588C21.7106 11.8686 23.1539 12.0123 24.601 12.017C26.0481 12.0122 27.4914 11.8686 28.911 11.588C29.1381 11.5452 29.3714 11.5483 29.5973 11.5973C29.8231 11.6463 30.0368 11.7401 30.2257 11.8731C30.4147 12.0062 30.575 12.1758 30.6971 12.372C30.8193 12.5681 30.9009 12.7868 30.937 13.015C30.9404 13.6525 31.1936 14.2631 31.6424 14.7158C32.0912 15.1685 32.6996 15.4271 33.337 15.436V14.636C33.337 13.4887 33.111 12.3526 32.6719 11.2927C32.2328 10.2327 31.5893 9.26963 30.7779 8.45843C29.9666 7.64723 29.0035 7.00372 27.9434 6.56472C26.8834 6.12582 25.7473 5.89992 24.6 5.90002Z" fill="#614B44" stroke="#45413C" stroke-linecap="round" stroke-linejoin="round"/>
<path d="M33.569 6.773C33.5492 6.7161 33.518 6.6639 33.4773 6.6195C33.4366 6.5751 33.3872 6.53961 33.3322 6.51501C33.2772 6.49051 33.2177 6.4775 33.1575 6.4768C33.0973 6.4761 33.0376 6.4877 32.982 6.511C32.6794 6.6114 32.3586 6.64461 32.0418 6.60841C31.7251 6.57211 31.4201 6.4672 31.148 6.301C31.148 6.301 26.78 4.117 24.6 4.117C22.42 4.117 18.044 6.3 18.044 6.3C17.7717 6.4659 17.4665 6.5706 17.1496 6.6069C16.8328 6.6432 16.5118 6.61011 16.209 6.51C16.1535 6.4867 16.0939 6.4751 16.0337 6.4758C15.9736 6.4765 15.9142 6.4895 15.8593 6.5141C15.8044 6.5386 15.7551 6.5742 15.7144 6.6186C15.6738 6.6629 15.6427 6.71511 15.623 6.77201C15.23 7.90601 15.991 9.14601 16.761 10.784C17.139 11.584 17.739 12.701 18.168 13.484C18.204 13.334 18.233 13.177 18.259 13.012C18.2953 12.7837 18.377 12.565 18.4992 12.3689C18.6215 12.1727 18.7819 12.0031 18.9709 11.8701C19.1599 11.737 19.3737 11.6432 19.5996 11.5943C19.8255 11.5453 20.0589 11.5421 20.286 11.585C21.7057 11.8652 23.149 12.0085 24.596 12.013C26.0431 12.0085 27.4863 11.8651 28.906 11.585C29.1331 11.5422 29.3664 11.5453 29.5923 11.5943C29.8181 11.6433 30.0318 11.7371 30.2207 11.8701C30.4097 12.0032 30.57 12.1728 30.6921 12.369C30.8143 12.5651 30.8959 12.7838 30.932 13.012C30.958 13.175 30.987 13.329 31.022 13.476C31.422 12.747 32.034 11.628 32.43 10.786C33.2 9.147 33.962 7.907 33.569 6.773Z" fill="#614B44"/>
<path d="M33.569 6.773C33.5492 6.7161 33.518 6.6639 33.4773 6.6195C33.4366 6.5751 33.3872 6.53961 33.3322 6.51501C33.2772 6.49051 33.2177 6.4775 33.1575 6.4768C33.0973 6.4761 33.0376 6.4877 32.982 6.511C32.6794 6.6114 32.3586 6.64461 32.0418 6.60841C31.7251 6.57211 31.4201 6.4672 31.148 6.301C31.148 6.301 26.78 4.117 24.6 4.117C22.42 4.117 18.044 6.3 18.044 6.3C17.7717 6.4659 17.4665 6.5706 17.1496 6.6069C16.8328 6.6432 16.5118 6.61011 16.209 6.51C16.1535 6.4867 16.0939 6.4751 16.0337 6.4758C15.9736 6.4765 15.9142 6.4895 15.8593 6.5141C15.8044 6.5386 15.7551 6.5742 15.7144 6.6186C15.6738 6.6629 15.6427 6.71511 15.623 6.77201C15.23 7.90601 15.991 9.14601 16.761 10.784C17.139 11.584 17.739 12.701 18.168 13.484C18.204 13.334 18.233 13.177 18.259 13.012C18.2953 12.7837 18.377 12.565 18.4992 12.3689C18.6215 12.1727 18.7819 12.0031 18.9709 11.8701C19.1599 11.737 19.3737 11.6432 19.5996 11.5943C19.8255 11.5453 20.0589 11.5421 20.286 11.585C21.7057 11.8652 23.149 12.0085 24.596 12.013C26.0431 12.0085 27.4863 11.8651 28.906 11.585C29.1331 11.5422 29.3664 11.5453 29.5923 11.5943C29.8181 11.6433 30.0318 11.7371 30.2207 11.8701C30.4097 12.0032 30.57 12.1728 30.6921 12.369C30.8143 12.5651 30.8959 12.7838 30.932 13.012C30.958 13.175 30.987 13.329 31.022 13.476C31.422 12.747 32.034 11.628 32.43 10.786C33.2 9.147 33.962 7.907 33.569 6.773Z" stroke="#45413C" stroke-linecap="round" stroke-linejoin="round"/>
<path d="M73.0091 69.8199H43.9821C43.7168 69.8199 43.4625 69.9253 43.275 70.1128C43.0874 70.3003 42.9821 70.5547 42.9821 70.8199V72.7749H74.0091V70.8199C74.0091 70.5547 73.9037 70.3003 73.7162 70.1128C73.5286 69.9253 73.2743 69.8199 73.0091 69.8199Z" fill="#BF8256" stroke="#45413C" stroke-linecap="round" stroke-linejoin="round"/>
<path d="M72.5311 67.6001C72.5312 67.5031 72.5122 67.4071 72.4752 67.3175C72.4381 67.2279 72.3838 67.1465 72.3152 67.078C72.2466 67.0094 72.1652 66.955 72.0756 66.918C71.986 66.881 71.89 66.862 71.7931 66.8621H45.2001C45.1031 66.862 45.007 66.881 44.9173 66.918C44.8277 66.955 44.7462 67.0094 44.6776 67.0779C44.6089 67.1464 44.5545 67.2278 44.5173 67.3174C44.4802 67.407 44.4611 67.5031 44.4611 67.6001V69.8201H72.5311V67.6001Z" fill="#BF8256" stroke="#45413C" stroke-linecap="round" stroke-linejoin="round"/>
<path d="M72.2701 46.1801H44.7211C44.4559 46.1801 44.2015 46.2854 44.014 46.473C43.8264 46.6605 43.7211 46.9149 43.7211 47.1801V49.1351H73.2701V47.1801C73.2701 46.9149 73.1647 46.6605 72.9772 46.473C72.7896 46.2854 72.5353 46.1801 72.2701 46.1801Z" fill="#BF8256" stroke="#45413C" stroke-linecap="round" stroke-linejoin="round"/>
<path d="M71.792 49.135H45.198V66.864H71.792V49.135Z" fill="#BF8256" stroke="#45413C" stroke-linecap="round" stroke-linejoin="round"/>
<path d="M56.0181 52.09H49.1531C48.6008 52.09 48.1531 52.5377 48.1531 53.09V62.91C48.1531 63.4623 48.6008 63.91 49.1531 63.91H56.0181C56.5704 63.91 57.0181 63.4623 57.0181 62.91V53.09C57.0181 52.5377 56.5704 52.09 56.0181 52.09Z" fill="#915E3A" stroke="#45413C" stroke-linecap="round" stroke-linejoin="round"/>
<path d="M67.838 52.09H60.973C60.4207 52.09 59.973 52.5377 59.973 53.09V62.91C59.973 63.4623 60.4207 63.91 60.973 63.91H67.838C68.3903 63.91 68.838 63.4623 68.838 62.91V53.09C68.838 52.5377 68.3903 52.09 67.838 52.09Z" fill="#915E3A" stroke="#45413C" stroke-linecap="round" stroke-linejoin="round"/>
<path d="M67.3601 35.838H59.2341C58.4503 35.838 57.6987 36.1493 57.1446 36.7035C56.5904 37.2577 56.2791 38.0093 56.2791 38.793C56.2791 39.185 56.4348 39.5609 56.712 39.8381C56.9891 40.1153 57.3651 40.271 57.7571 40.271H68.8371C69.229 40.271 69.605 40.1153 69.8822 39.8381C70.1593 39.5609 70.3151 39.185 70.3151 38.793C70.3151 38.0093 70.0037 37.2577 69.4496 36.7035C68.8954 36.1493 68.1438 35.838 67.3601 35.838Z" fill="#46B000" stroke="#45413C" stroke-linecap="round" stroke-linejoin="round"/>
<path d="M58.4951 40.271V43.225" stroke="#45413C" stroke-linecap="round" stroke-linejoin="round"/>
<path d="M66.991 40.271H64.036V46.181H66.991V40.271Z" fill="#FFE500" stroke="#45413C" stroke-linecap="round" stroke-linejoin="round"/>
</svg>

<svg xmlns="http://www.w3.org/2000/svg" width="82" height="83" fill="none" viewBox="0 0 82 83"><path fill="#daedf7" stroke="#daedf7" stroke-miterlimit="10" d="M41 81.216c22.091 0 40-17.909 40-40s-17.909-40-40-40-40 17.909-40 40 17.909 40 40 40Z"/><path fill="#45413c" d="M24.479 82.784c7.72 0 13.978-.939 13.978-2.097s-6.258-2.097-13.978-2.097-13.978.939-13.978 2.097 6.258 2.097 13.978 2.097" opacity=".15"/><path fill="#87898c" d="M15.241 53.29v25.161h6.71l.766-17.615a1.752 1.752 0 0 1 3.5 0l.766 17.615h6.71V53.29z"/><path fill="#45413c" d="m21.088 59.511 3.38-2.028 3.426 2.056a1.83 1.83 0 0 0 1.6.136l4.2-1.632V53.29H15.241v4.472l4.166 1.852a1.83 1.83 0 0 0 1.681-.103"/><path stroke="#45413c" stroke-linecap="round" stroke-linejoin="round" d="M15.241 53.29v25.161h6.71l.766-17.615a1.752 1.752 0 0 1 3.5 0l.766 17.615h6.71V53.29z"/><path fill="#45413c" stroke="#45413c" stroke-linecap="round" stroke-linejoin="round" d="M14.192 77.123a1.4 1.4 0 0 0 1.168 2.166h5.724a1.4 1.4 0 0 0 1.24-2.043c-1.524-2.927-6.39-2.765-8.132-.123M34.742 77.123a1.4 1.4 0 0 1-1.168 2.166H27.85a1.4 1.4 0 0 1-1.24-2.043c1.527-2.927 6.39-2.765 8.132-.123"/><path fill="#87898c" d="M9.372 43.645c.008.678.087 1.354.237 2.015a15.086 15.086 0 0 1 29.606-.6c.227-.871.345-1.768.35-2.668a15.1 15.1 0 1 0-30.193 0z"/><path fill="#87898c" d="M39.565 42.387a15.1 15.1 0 1 0-30.193 0v1.258a9.66 9.66 0 0 0 5.869 8.874v.771h18.453v-1.237a10.9 10.9 0 0 0 5.871-9.666"/><path stroke="#45413c" stroke-linecap="round" stroke-linejoin="round" d="M39.565 42.387a15.1 15.1 0 1 0-30.193 0v1.258a9.66 9.66 0 0 0 5.869 8.874v.771h18.453v-1.237a10.9 10.9 0 0 0 5.871-9.666"/><path fill="#fff" stroke="#45413c" stroke-linecap="round" stroke-linejoin="round" d="m33.694 54.967-5.87 1.678-3.356-1.678-3.355 1.678-5.87-1.678V53.29h18.451z"/><path stroke="#45413c" stroke-linecap="round" stroke-linejoin="round" d="M33.694 52.053V40.709"/><path fill="#fff" stroke="#45413c" stroke-linecap="round" stroke-linejoin="round" d="m24.467 49.1 5.953-20.587a15.1 15.1 0 0 0-11.906 0z"/><path fill="#bf8256" stroke="#45413c" stroke-linecap="round" stroke-linejoin="round" d="M27.587 28.513a8.93 8.93 0 0 1-6.23 0l.007-3.679h6.23z"/><path stroke="#45413c" stroke-linecap="round" stroke-linejoin="round" d="M24.468 28.836v26.13M24.467 49.1l-5.953-20.587a15.1 15.1 0 0 0-4.722 3.2l3.965 3.965v4.194zM24.467 49.1l5.953-20.587a15.1 15.1 0 0 1 4.722 3.2l-3.965 3.965v4.194z"/><path fill="#45413c" stroke="#45413c" stroke-linecap="round" stroke-linejoin="round" d="m24.468 28.835-3.836-1.973a.725.725 0 0 0-1.056.645v2.657a.725.725 0 0 0 1.056.645zM24.468 28.835l3.837-1.973a.725.725 0 0 1 1.056.645v2.657a.725.725 0 0 1-1.056.645z"/><path fill="#fff" stroke="#45413c" stroke-linecap="round" stroke-linejoin="round" d="M27.823 52.45a2.516 2.516 0 0 0 0-5.031h-2.516v5.032z"/><path stroke="#45413c" stroke-linecap="round" stroke-linejoin="round" d="M15.242 52.519a9.6 9.6 0 0 0 3.775.771h6.29v-5.871h-6.29a3.78 3.78 0 0 1-3.775-3.774v-2.936"/><path fill="#fff" stroke="#45413c" stroke-linecap="round" stroke-linejoin="round" d="M26.823 46.58h-6.387a1 1 0 0 0-1 1v11.419a1 1 0 0 0 1 1h6.387a1 1 0 0 0 1-1V47.58a1 1 0 0 0-1-1"/><path fill="#bf8256" stroke="#45413c" stroke-linecap="round" stroke-linejoin="round" d="M34.788 17.545a1.794 1.794 0 0 0-1.456-1.745v-1.167a8.736 8.736 0 0 0-17.472 0V15.8a1.783 1.783 0 0 0 .183 3.53 8.737 8.737 0 0 0 17.105 0 1.8 1.8 0 0 0 1.64-1.785"/><path fill="#bf8256" d="M19.864 19.729a1.092 1.092 0 1 0 0-2.184 1.092 1.092 0 0 0 0 2.184M29.328 19.729a1.092 1.092 0 1 0 0-2.184 1.092 1.092 0 0 0 0 2.184"/><path fill="#45413c" d="M21.32 16.817a1.092 1.092 0 1 0 0-2.184 1.092 1.092 0 0 0 0 2.184M27.872 16.817a1.092 1.092 0 1 0 0-2.184 1.092 1.092 0 0 0 0 2.184"/><path fill="#614b44" stroke="#45413c" stroke-linecap="round" stroke-linejoin="round" d="M22.121 23.952a18 18 0 0 0-3.495.873s1.2-4.368 3.495-4.368a1.75 1.75 0 0 1 0 3.5zM27.07 23.952c1.192.172 2.363.465 3.495.873 0 0-1.2-4.368-3.494-4.368a1.75 1.75 0 0 0 0 3.5zM24.6 5.9a8.736 8.736 0 0 0-8.736 8.736v.8a2.433 2.433 0 0 0 2.4-2.421 1.73 1.73 0 0 1 2.027-1.427c1.42.28 2.863.424 4.31.429a22.6 22.6 0 0 0 4.31-.429 1.73 1.73 0 0 1 2.026 1.427 2.434 2.434 0 0 0 2.4 2.421v-.8A8.735 8.735 0 0 0 24.6 5.9"/><path fill="#614b44" d="M33.569 6.773a.44.44 0 0 0-.587-.262 2.2 2.2 0 0 1-1.834-.21S26.78 4.117 24.6 4.117 18.044 6.3 18.044 6.3a2.2 2.2 0 0 1-1.835.21.44.44 0 0 0-.586.262c-.393 1.134.368 2.374 1.138 4.012.378.8.978 1.917 1.407 2.7q.053-.225.091-.472a1.73 1.73 0 0 1 2.027-1.427c1.42.28 2.863.423 4.31.428a22.6 22.6 0 0 0 4.31-.428 1.73 1.73 0 0 1 2.026 1.427q.038.244.09.464c.4-.729 1.012-1.848 1.408-2.69.77-1.639 1.532-2.879 1.139-4.013"/><path stroke="#45413c" stroke-linecap="round" stroke-linejoin="round" d="M33.569 6.773a.44.44 0 0 0-.587-.262 2.2 2.2 0 0 1-1.834-.21S26.78 4.117 24.6 4.117 18.044 6.3 18.044 6.3a2.2 2.2 0 0 1-1.835.21.44.44 0 0 0-.586.262c-.393 1.134.368 2.374 1.138 4.012.378.8.978 1.917 1.407 2.7q.053-.225.091-.472a1.73 1.73 0 0 1 2.027-1.427c1.42.28 2.863.423 4.31.428a22.6 22.6 0 0 0 4.31-.428 1.73 1.73 0 0 1 2.026 1.427q.038.244.09.464c.4-.729 1.012-1.848 1.408-2.69.77-1.639 1.532-2.879 1.139-4.013"/><path fill="#bf8256" stroke="#45413c" stroke-linecap="round" stroke-linejoin="round" d="M73.01 69.82H43.981a1 1 0 0 0-1 1v1.955H74.01V70.82a1 1 0 0 0-1-1M72.531 67.6a.74.74 0 0 0-.738-.738H45.2a.74.74 0 0 0-.739.738v2.22h28.07zM72.27 46.18H44.721a1 1 0 0 0-1 1v1.955h29.55V47.18a1 1 0 0 0-1-1"/><path fill="#bf8256" stroke="#45413c" stroke-linecap="round" stroke-linejoin="round" d="M71.792 49.135H45.198v17.729h26.594z"/><path fill="#915e3a" stroke="#45413c" stroke-linecap="round" stroke-linejoin="round" d="M56.018 52.09h-6.865a1 1 0 0 0-1 1v9.82a1 1 0 0 0 1 1h6.865a1 1 0 0 0 1-1v-9.82a1 1 0 0 0-1-1M67.838 52.09h-6.865a1 1 0 0 0-1 1v9.82a1 1 0 0 0 1 1h6.865a1 1 0 0 0 1-1v-9.82a1 1 0 0 0-1-1"/><path fill="#46b000" stroke="#45413c" stroke-linecap="round" stroke-linejoin="round" d="M67.36 35.838h-8.126a2.955 2.955 0 0 0-2.955 2.955 1.48 1.48 0 0 0 1.478 1.478h11.08a1.48 1.48 0 0 0 1.478-1.478 2.955 2.955 0 0 0-2.955-2.955"/><path stroke="#45413c" stroke-linecap="round" stroke-linejoin="round" d="M58.495 40.271v2.954"/><path fill="#ffe500" stroke="#45413c" stroke-linecap="round" stroke-linejoin="round" d="M66.991 40.271h-2.955v5.91h2.955z"/></svg>
